libs/icons/src/svg/contact.svg

<svg width="16" height="16" viewBox="0 0 16 16" fill="none" xmlns="http://www.w3.org/2000/svg">
<g clip-path="url(#clip0_3_3331)">
<path fill-rule="evenodd" clip-rule="evenodd" d="M9.33337 7.33338C9.33337 6.96519 9.63185 6.66672 10 6.66672H12.6667C13.0349 6.66672 13.3334 6.96519 13.3334 7.33338C13.3334 7.70157 13.0349 8.00005 12.6667 8.00005H10C9.63185 8.00005 9.33337 7.70157 9.33337 7.33338Z" fill="#202327"/>
<path fill-rule="evenodd" clip-rule="evenodd" d="M9.33337 10C9.33337 9.63181 9.63185 9.33334 10 9.33334H12.6667C13.0349 9.33334 13.3334 9.63181 13.3334 10C13.3334 10.3682 13.0349 10.6667 12.6667 10.6667H10C9.63185 10.6667 9.33337 10.3682 9.33337 10Z" fill="#202327"/>
<path d="M3.33348 11.3334C2.96529 11.3334 2.65594 11.0267 2.77638 10.6788C3.04747 9.89565 3.79141 9.33338 4.66682 9.33338H6.00015C6.87556 9.33338 7.6195 9.89565 7.89059 10.6788C8.01103 11.0267 7.70167 11.3334 7.33348 11.3334H3.33348Z" fill="#202327"/>
<path fill-rule="evenodd" clip-rule="evenodd" d="M0.00012207 2.66667C0.00012207 1.93029 0.597076 1.33334 1.33346 1.33334H2.66679C3.05371 1.33334 3.3651 1.50185 3.5874 1.69254C3.80631 1.88031 3.96797 2.11246 4.08117 2.31935C4.19516 2.52768 4.41495 2.66667 4.66679 2.66667C4.91862 2.66667 5.13842 2.52768 5.2524 2.31935C5.3656 2.11246 5.52727 1.88031 5.74618 1.69254C5.96848 1.50185 6.27987 1.33334 6.66679 1.33334H9.33345C9.72038 1.33334 10.0318 1.50185 10.2541 1.69254C10.473 1.88031 10.6346 2.11246 10.7478 2.31935C10.8618 2.52768 11.0816 2.66667 11.3335 2.66667C11.5853 2.66667 11.8051 2.52768 11.9191 2.31935C12.0323 2.11246 12.1939 1.88031 12.4128 1.69254C12.6351 1.50185 12.9465 1.33334 13.3335 1.33334H14.6668C15.4032 1.33334 16.0001 1.93029 16.0001 2.66667V13.3333C16.0001 14.0697 15.4032 14.6667 14.6668 14.6667H1.33346C0.597075 14.6667 0.00012207 14.0697 0.00012207 13.3333V2.66667ZM2.66269 2.66667H1.33346V13.3333H14.6668V2.66667H13.3376C13.3303 2.66923 13.3119 2.67804 13.2809 2.70456C13.2213 2.75571 13.1523 2.84324 13.0888 2.95935C12.7501 3.57828 12.0915 4 11.3335 4C10.5754 4 9.91679 3.57828 9.57815 2.95935C9.51462 2.84324 9.44561 2.75571 9.38598 2.70456C9.35506 2.67804 9.3366 2.66923 9.32936 2.66667H6.67089C6.66365 2.66923 6.64519 2.67804 6.61427 2.70456C6.55464 2.75571 6.48563 2.84324 6.4221 2.95935C6.08345 3.57828 5.42488 4 4.66679 4C3.90869 4 3.25012 3.57828 2.91148 2.95935C2.84795 2.84324 2.77894 2.75571 2.71931 2.70456C2.68839 2.67804 2.66993 2.66923 2.66269 2.66667ZM2.65914 2.66577C2.65913 2.66567 2.66003 2.66579 2.66187 2.66639C2.66007 2.66616 2.65915 2.66586 2.65914 2.66577ZM6.67443 2.66577C6.67442 2.66586 6.6735 2.66616 6.67171 2.66639C6.67355 2.66579 6.67444 2.66567 6.67443 2.66577ZM9.32581 2.66577C9.3258 2.66567 9.3267 2.66579 9.32853 2.66639C9.32674 2.66616 9.32582 2.66586 9.32581 2.66577ZM13.3411 2.66577C13.3411 2.66586 13.3402 2.66616 13.3384 2.66639C13.3402 2.66579 13.3411 2.66567 13.3411 2.66577Z" fill="#202327"/>
<path d="M5.33333 8.66667C6.06971 8.66667 6.66667 8.06971 6.66667 7.33333C6.66667 6.59695 6.06971 6 5.33333 6C4.59695 6 4 6.59695 4 7.33333C4 8.06971 4.59695 8.66667 5.33333 8.66667Z" fill="#202327"/>
</g>
<defs>
<clipPath id="clip0_3_3331">
<rect width="16" height="16" fill="white"/>
</clipPath>
</defs>
</svg>

<svg xmlns="http://www.w3.org/2000/svg" viewBox="0 0 16 16" class="sageicon"><path fill-rule="evenodd" d="M9.333 7.333c0-.368.299-.666.667-.666h2.667a.667.667 0 1 1 0 1.333H10a.667.667 0 0 1-.667-.667ZM9.333 10c0-.368.299-.667.667-.667h2.667a.667.667 0 1 1 0 1.334H10A.667.667 0 0 1 9.333 10Z"/><path d="M3.333 11.333c-.368 0-.677-.306-.557-.654a2 2 0 0 1 1.89-1.346H6a2 2 0 0 1 1.89 1.346c.121.348-.188.654-.557.654h-4Z"/><path fill-rule="evenodd" d="M0 2.667c0-.737.597-1.334 1.333-1.334h1.334c.387 0 .698.169.92.36.22.187.38.42.494.626a.666.666 0 0 0 1.171 0 2.25 2.25 0 0 1 .494-.626c.222-.191.534-.36.92-.36h2.667c.387 0 .699.169.921.36.219.187.38.42.494.626a.666.666 0 0 0 1.171 0 2.25 2.25 0 0 1 .494-.626c.222-.191.533-.36.92-.36h1.334c.736 0 1.333.597 1.333 1.334v10.666c0 .737-.597 1.334-1.333 1.334H1.333A1.333 1.333 0 0 1 0 13.333V2.667Zm2.663 0h-1.33v10.666h13.334V2.667h-1.33a.201.201 0 0 0-.056.038.934.934 0 0 0-.192.254 2 2 0 0 1-3.51 0 .935.935 0 0 0-.193-.254.2.2 0 0 0-.057-.038H6.671a.2.2 0 0 0-.057.038.934.934 0 0 0-.192.254 2 2 0 0 1-3.51 0 .935.935 0 0 0-.193-.254.2.2 0 0 0-.056-.038Zm-.004-.001h.003-.003Zm4.015 0h-.002.002Zm2.652 0h.002-.002Zm4.015 0h-.003.003Z"/><path d="M5.333 8.667a1.333 1.333 0 1 0 0-2.667 1.333 1.333 0 0 0 0 2.667Z"/></svg>
